X: 1
T: J\"agerquadrille
O: Germany
R:
Z: John Chambers <jc@trillian.mit.edu> http://trillian.mit.edu/~jc/music/
M: 2/4
L: 1/16
P: Play I+4(ABC)
K: G
P: Intro
| "G"[G4D] "D"[A4F] | "G"[B2G][BG][cA] [d4B] | "D7"[c2A][cA][BG] [A2F]B2 | [A8D] \
|: "G"B4 "C"c4 | "G"BcBA G2D2 | G2GA B2D2 |
| "G"G2GA B2D2 | "G"B4 "C"c4 | "G"BcBA G2D2 | G2GB "D7"d3c | "G"B2"D"A2 "G"G4 :: "G"B2d2 g2d2 | B2BA G2D2 |
| "G"G2GA B2D2 | G2GA B2D2 | B2d2 g2d2 | B2BA G2D2 | G2B2 "D7"d3c | "G"B2"D"A2 "G"G4 :|
|: "D7"A4 "G"B4 | "D7"c2cB c2A2 | "G"B4 "D7"c4 | "G"d2dc d2B2 | "D7"A4 "G"B4 | "D7"c2cB c2A2 | "G"B2B2 "D7"A2A2 | "G"G8 :|
%%sep 5 5 200
P: Intro
K: A
| "A"[A4E] "E"[B4G] | "A"[c2A][cA][dB] [e4c] | "E7"[d2B][dB][cA] [B2G]c2 | [B8E] \
|: "A"c4 "D"d4 | "A"cdcB A2E2 | A2AB c2E2 |
| "A"A2AB c2E2 | "A"c4 "D"d4 | "A"cdcB A2E2 | A2Ac "E7"e3d | "A"c2"E"B2 "A"A4 :: "A"c2e2 a2e2 | c2cB A2E2 |
| "A"A2AB c2E2 | A2AB c2E2 | c2e2 a2e2 | c2cB A2E2 | A2c2 "E7"e3d | "A"c2"E"B2 "A"A4 :|
|: "E7"B4 "A"c4 | "E7"d2dc d2B2 | "A"c4 "E7"d4 | "A"e2ed e2c2 | "E7"B4 "A"c4 | "E7"d2dc d2B2 | "A"c2c2 "E7"B2B2 | "A"A8 :|
